documentation/public/assets/images/slider-12-do-and-dont-5.svg

<svg width="100" height="153" viewBox="0 0 100 153" fill="none" xmlns="http://www.w3.org/2000/svg">
<g clip-path="url(#clip0_10896_97306)">
<path d="M83.2433 199.569H19.717C10.4769 199.569 2.96045 192.053 2.96045 182.813V16.9211C2.96045 7.681 10.4769 0.164551 19.717 0.164551H83.2433C92.4835 0.164551 99.9999 7.681 99.9999 16.9211V182.813C99.9999 192.053 92.4835 199.569 83.2433 199.569Z" fill="#EEEEEE"/>
<path d="M83.2894 195.033H19.671C12.8321 195.033 7.26636 189.467 7.26636 182.628V16.7796C7.26636 9.94079 12.8321 4.375 19.671 4.375H83.2894C90.1282 4.375 95.694 9.94079 95.694 16.7796V182.628C95.694 189.467 90.1282 195.033 83.2894 195.033Z" fill="white"/>
<path d="M60.477 15.4146H42.4868C40.1118 15.4146 38.1809 13.4837 38.1809 11.1087C38.1809 8.73366 40.1118 6.80273 42.4868 6.80273H60.477C62.852 6.80273 64.7829 8.73366 64.7829 11.1087C64.7829 13.4837 62.852 15.4146 60.477 15.4146Z" fill="#EEEEEE"/>
<rect x="19" y="50.4646" width="65" height="1.59509" rx="0.797546" fill="#EEEEEE"/>
<rect x="19" y="50.4646" width="33.4969" height="1.59509" rx="0.797546" fill="#1E71F6"/>
<circle cx="49.4968" cy="51.072" r="3" fill="#194CCC"/>
<rect x="19" y="36.1646" width="39" height="3.9" fill="#EEEEEE"/>
<rect x="19" y="89.7598" width="65" height="1.59509" rx="0.797546" fill="#EEEEEE"/>
<rect x="19" y="89.7598" width="33.4969" height="1.59509" rx="0.797546" fill="#1E71F6"/>
<circle cx="49.4968" cy="90.3672" r="3" fill="#194CCC"/>
<rect x="19" y="75.4597" width="39" height="3.9" fill="#EEEEEE"/>
<rect x="19" y="129.055" width="65" height="1.59509" rx="0.797546" fill="#EEEEEE"/>
<rect x="19" y="129.055" width="33.4969" height="1.59509" rx="0.797546" fill="#1E71F6"/>
<circle cx="49.4968" cy="129.662" r="3" fill="#194CCC"/>
<rect x="19" y="114.755" width="39" height="3.9" fill="#EEEEEE"/>
</g>
<defs>
<clipPath id="clip0_10896_97306">
<rect width="100" height="153" fill="white"/>
</clipPath>
</defs>
</svg>

<svg width="100" height="153" fill="none" xmlns="http://www.w3.org/2000/svg"><g clip-path="url(#a)"><path d="M83.24 199.57H19.72A16.77 16.77 0 0 1 2.96 182.8V16.92C2.96 7.68 10.48.16 19.72.16h63.52C92.48.16 100 7.68 100 16.92v165.9c0 9.23-7.52 16.75-16.76 16.75Z" fill="#EEE"/><path d="M83.29 195.03H19.67c-6.84 0-12.4-5.56-12.4-12.4V16.78c0-6.84 5.56-12.4 12.4-12.4H83.3c6.84 0 12.4 5.56 12.4 12.4v165.85c0 6.84-5.56 12.4-12.4 12.4Z" fill="#fff"/><path d="M60.48 15.41h-18a4.31 4.31 0 0 1 0-8.6h18a4.31 4.31 0 0 1 0 8.6Z" fill="#EEE"/><rect x="19" y="50.46" width="65" height="1.6" rx=".8" fill="#EEE"/><rect x="19" y="50.46" width="33.5" height="1.6" rx=".8" fill="#1E71F6"/><circle cx="49.5" cy="51.07" r="3" fill="#194CCC"/><path fill="#EEE" d="M19 36.16h39v3.9H19z"/><rect x="19" y="89.76" width="65" height="1.6" rx=".8" fill="#EEE"/><rect x="19" y="89.76" width="33.5" height="1.6" rx=".8" fill="#1E71F6"/><circle cx="49.5" cy="90.37" r="3" fill="#194CCC"/><path fill="#EEE" d="M19 75.46h39v3.9H19z"/><rect x="19" y="129.06" width="65" height="1.6" rx=".8" fill="#EEE"/><rect x="19" y="129.06" width="33.5" height="1.6" rx=".8" fill="#1E71F6"/><circle cx="49.5" cy="129.66" r="3" fill="#194CCC"/><path fill="#EEE" d="M19 114.75h39v3.9H19z"/></g><defs><clipPath id="a"><path fill="#fff" d="M0 0h100v153H0z"/></clipPath></defs></svg>
